custom_components/lucide_icons/data/icons/guitar.svg

<?xml version="1.0" encoding="UTF-8" standalone="no"?>
<svg xmlns="http://www.w3.org/2000/svg" xmlns:svg="http://www.w3.org/2000/svg" width="24" height="24" viewBox="0 0 24 24" fill="currentColor" tags="acoustic,instrument,strings,riff,rock,band,country,concert,performance,play,lead,loud,music,audio,sound,noise" categories="multimedia">
  
  <path d="M 19.400391 1.0195312 C 18.892827 1.0195312 18.384871 1.2086885 18 1.5859375 A 1.0001 1.0001 0 0 0 17.992188 1.59375 L 16.292969 3.2929688 A 1.0001 1.0001 0 0 0 16 4 L 16 6.5859375 L 14.478516 8.1074219 C 13.498295 7.4106649 12.299342 7 11 7 C 9.3555588 7 7.9421116 8.0496202 7.2890625 9.4863281 A 1.0001 1.0001 0 0 0 7.2871094 9.4941406 L 6.8867188 10.394531 A 1.0001 1.0001 0 0 0 6.8828125 10.400391 C 6.7252154 10.761607 6.3784586 10.993467 5.984375 11 A 1 1 0 0 0 5.9804688 11.003906 C 3.240324 11.015186 1 13.257338 1 16 C 1 19.845447 4.1545531 23 8 23 C 10.744329 23 12.991438 20.758047 13 18.015625 C 13.0065 17.621541 13.238353 17.274789 13.599609 17.117188 A 1.0001 1.0001 0 0 0 13.605469 17.113281 L 14.505859 16.712891 A 1.0001 1.0001 0 0 0 14.513672 16.710938 C 15.950352 16.057924 17 14.644441 17 13 C 17 11.700658 16.589335 10.501705 15.892578 9.5214844 L 17.414062 8 L 20 8 A 1.0001 1.0001 0 0 0 20.707031 7.7070312 L 22.40625 6.0078125 A 1.0001 1.0001 0 0 0 22.414062 6 C 23.168561 5.2302581 23.168561 3.9689607 22.414062 3.1992188 A 1.0001 1.0001 0 0 0 22.40625 3.1933594 L 20.806641 1.59375 A 1.0001 1.0001 0 0 0 20.800781 1.5859375 C 20.415951 1.208686 19.907953 1.0195313 19.400391 1.0195312 z M 19.398438 3.015625 L 20.986328 4.5996094 L 20.984375 4.6015625 L 19.585938 6 L 18 6 L 18 4.4140625 L 19.398438 3.015625 z M 11 9 C 11.760257 9 12.455466 9.1961451 13.048828 9.5371094 L 11.583984 11.001953 C 11.556203 11.000355 11.52812 11 11.5 11 C 10.683419 11 10 11.683419 10 12.5 C 10 13.316581 10.683419 14 11.5 14 C 12.316581 14 13 13.316581 13 12.5 C 13 12.47188 12.999645 12.443797 12.998047 12.416016 L 14.462891 10.951172 C 14.803855 11.544534 15 12.239743 15 13 C 15 13.755554 14.448834 14.541723 13.685547 14.888672 L 13.693359 14.886719 L 12.800781 15.283203 L 12.798828 15.283203 C 11.724979 15.752415 11.019426 16.812527 11 17.984375 A 1.0001 1.0001 0 0 0 11 18 C 11 19.668695 9.6686955 21 8 21 C 5.2454601 21 3 18.75454 3 16 C 3 14.331305 4.3313045 13 6 13 A 1 1 0 0 0 6.0078125 12.996094 A 1 1 0 0 0 6.015625 13 C 7.1874727 12.98057 8.2476324 12.27508 8.7167969 11.201172 L 9.1132812 10.306641 L 9.1113281 10.314453 C 9.4582739 9.5511777 10.244446 9 11 9 z M 11 12.515625 A 1 1 0 0 0 11.193359 12.806641 A 1 1 0 0 0 11.484375 13 C 11.231809 12.991042 11.008958 12.768191 11 12.515625 z M 6 15 A 1 1 0 0 0 5.2929688 15.292969 A 1 1 0 0 0 5.2929688 16.707031 L 7.2929688 18.707031 A 1 1 0 0 0 8.7070312 18.707031 A 1 1 0 0 0 8.7070312 17.292969 L 6.7070312 15.292969 A 1 1 0 0 0 6 15 z "/>
</svg>

<?xml version="1.0" encoding="UTF-8" standalone="no"?>
<svg xmlns="http://www.w3.org/2000/svg" xmlns:svg="http://www.w3.org/2000/svg" width="24" height="24" viewBox="0 0 24 24" fill="currentColor" tags="acoustic,instrument,strings,riff,rock,band,country,concert,performance,play,lead,loud,music,audio,sound,noise" categories="multimedia">
  
  <path d="m 19.400391,1.0195312 c -0.507564,0 -1.01552,0.1891569 -1.400391,0.5664063 a 1.0001,1.0001 0 0 0 -0.0078,0.00781 L 16.292969,3.2929688 A 1.0001,1.0001 0 0 0 16,4 v 3 a 1.0001,1.0001 0 0 0 1,1 h 3 A 1.0001,1.0001 0 0 0 20.707031,7.7070312 L 22.40625,6.0078125 A 1.0001,1.0001 0 0 0 22.414062,6 c 0.754499,-0.7697427 0.754499,-2.0310385 0,-2.8007812 a 1.0001,1.0001 0 0 0 -0.0078,-0.00586 L 20.806641,1.59375 a 1.0001,1.0001 0 0 0 -0.0059,-0.00781 C 20.41591,1.2086881 19.907954,1.0195312 19.400391,1.0195312 Z m -0.002,1.9960938 1.587891,1.5839844 -0.002,0.00195 L 19.585937,6 H 18 V 4.4140625 Z"/>
  <path style="color:#000000;fill:#000000;-inkscape-stroke:none" d="m 16.292969,6.2929687 -5.09961,5.0996093 a 1,1 0 0 0 0,1.414063 1,1 0 0 0 1.414063,0 l 5.099609,-5.0996098 a 1,1 0 0 0 0,-1.4140625 1,1 0 0 0 -1.414062,0 z" id="path2" stroke-width="0"/>
  <g id="circle2" stroke-width="0">
    <path style="color:#000000;fill:currentColor;-inkscape-stroke:none" d="M 12,12.5 A 0.5,0.5 0 0 1 11.5,13 0.5,0.5 0 0 1 11,12.5 0.5,0.5 0 0 1 11.5,12 0.5,0.5 0 0 1 12,12.5 Z" id="path5"/>
    <path style="color:#000000;fill:#000000;-inkscape-stroke:none" d="M 11.5,11 C 10.683418,11 10,11.683418 10,12.5 10,13.316582 10.683418,14 11.5,14 12.316582,14 13,13.316582 13,12.5 13,11.683418 12.316582,11 11.5,11 Z m 0,1 C 11.764297,12 12,12.235703 12,12.5 12,12.764297 11.764297,13 11.5,13 11.235703,13 11,12.764297 11,12.5 11,12.235703 11.235703,12 11.5,12 Z" id="path6"/>
  </g>
  <path style="color:#000000;fill:#000000;-inkscape-stroke:none" d="M 11,7 C 9.3555572,7 7.9421123,8.0496187 7.2890625,9.4863281 a 1.0001,1.0001 0 0 0 -0.00195,0.00781 L 6.8867187,10.394531 a 1.0001,1.0001 0 0 0 -0.00391,0.0059 C 6.7252114,10.761648 6.378459,10.993467 5.984375,11 a 1,1 0 0 0 -0.00391,0.0039 C 3.2403175,11.01518 1,13.257335 1,16 c 0,3.845451 3.1545493,7 7,7 2.749576,0 5,-2.250424 5,-5 v 0.01563 c 0.0065,-0.394084 0.238352,-0.740836 0.599609,-0.898438 a 1.0001,1.0001 0 0 0 0.0059,-0.0039 l 0.90039,-0.40039 a 1.0001,1.0001 0 0 0 0.0078,-0.002 C 15.950381,16.057888 17,14.644443 17,13 17,9.6761938 14.323806,7 11,7 Z m 0,2 c 2.276188,0 4,1.723812 4,4 0,0.755555 -0.551165,1.541723 -1.314453,1.888672 l 0.0078,-0.002 -0.892578,0.396484 c -4.75e-4,2.08e-4 -0.0015,-2.08e-4 -0.002,0 C 11.724919,15.752368 11.019426,16.812526 11,17.984375 A 1.0001,1.0001 0 0 0 11,18 c 0,1.668697 -1.3313028,3 -3,3 -2.7545427,0 -5,-2.245457 -5,-5 0,-1.668697 1.3313028,-3 3,-3 a 1,1 0 0 0 0.00781,-0.0039 A 1,1 0 0 0 6.015625,13 c 1.1718489,-0.01943 2.232007,-0.724919 2.7011719,-1.798828 l 0.3964844,-0.894531 -0.00195,0.0078 C 9.4582774,9.5511648 10.244445,9 11,9 Z" id="path3" stroke-width="0"/>
  <path style="color:#000000;fill:#000000;-inkscape-stroke:none" d="m 6,15 a 1,1 0 0 0 -0.7070313,0.292969 1,1 0 0 0 0,1.414062 l 2,2 a 1,1 0 0 0 1.4140626,0 1,1 0 0 0 0,-1.414062 l -2.0000001,-2 A 1,1 0 0 0 6,15 Z" id="path4" stroke-width="0"/>
</svg>
